svg/phone_incoming_outgoing_outline.svg

<svg xmlns="http://www.w3.org/2000/svg" viewBox="0 0 24 24"><path d="M19 16.5c-1.2 0-2.5-.2-3.6-.6h-.3c-.3 0-.5.1-.7.3l-2.2 2.2c-2.8-1.5-5.2-3.8-6.6-6.6l2.2-2.2c.3-.3.4-.7.2-1-.3-1.1-.5-2.4-.5-3.6 0-.5-.5-1-1-1H3c-.5 0-1 .5-1 1 0 9.4 7.6 17 17 17 .5 0 1-.5 1-1v-3.5c0-.5-.5-1-1-1M4 6h1.5c.1.9.3 1.8.5 2.6L4.8 9.8C4.4 8.6 4.1 7.3 4 6m14 14c-1.3-.1-2.6-.4-3.8-.8l1.2-1.2c.8.2 1.7.4 2.6.4zM16 9V7.5h-3.5L18 2l-1-1-5.5 5.5V3H10v6zm1-3v1.5h3.5L15 13l1 1 5.5-5.5V12H23V6z"/></svg>

<svg xmlns="http://www.w3.org/2000/svg" id="mdi-phone-incoming-outgoing-outline" viewBox="0 0 24 24"><path d="M19 16.5C17.8 16.5 16.5 16.3 15.4 15.9H15.1C14.8 15.9 14.6 16 14.4 16.2L12.2 18.4C9.4 16.9 7 14.6 5.6 11.8L7.8 9.6C8.1 9.3 8.2 8.9 8 8.6C7.7 7.5 7.5 6.2 7.5 5C7.5 4.5 7 4 6.5 4H3C2.5 4 2 4.5 2 5C2 14.4 9.6 22 19 22C19.5 22 20 21.5 20 21V17.5C20 17 19.5 16.5 19 16.5M4 6H5.5C5.6 6.9 5.8 7.8 6 8.6L4.8 9.8C4.4 8.6 4.1 7.3 4 6M18 20C16.7 19.9 15.4 19.6 14.2 19.2L15.4 18C16.2 18.2 17.1 18.4 18 18.4V20M16 9V7.5H12.5L18 2L17 1L11.5 6.5V3H10V9H16M17 6V7.5H20.5L15 13L16 14L21.5 8.5V12H23V6H17Z" /></svg>
